static/images/home/footer/icon-github.svg

<?xml version="1.0" encoding="UTF-8"?>
<svg width="24px" height="24px" viewBox="0 0 24 24" version="1.1" xmlns="http://www.w3.org/2000/svg" xmlns:xlink="http://www.w3.org/1999/xlink">
    <title>icon-github</title>
    <g id="icon-github" stroke="none" stroke-width="1" fill="none" fill-rule="evenodd">
        <g id="iconmonstr-github-1" fill="#FFFFFF" fill-rule="nonzero">
            <path d="M12,0 C5.374,0 0,5.50883113 0,12.3033638 C0,17.7394 3.438,22.3511109 8.207,23.9782307 C8.806,24.0920369 9,23.7106326 9,23.386644 L9,21.0961678 C5.662,21.8405213 4.967,19.6443708 4.967,19.6443708 C4.421,18.222307 3.634,17.8439786 3.634,17.8439786 C2.545,17.0801448 3.717,17.0965493 3.717,17.0965493 C4.922,17.1826728 5.556,18.364821 5.556,18.364821 C6.626,20.2451851 8.363,19.7017865 9.048,19.3870255 C9.155,18.5924332 9.466,18.0490347 9.81,17.7424759 C7.145,17.4297654 4.343,16.3747519 4.343,11.6615383 C4.343,10.3173958 4.812,9.22034588 5.579,8.35911041 C5.455,8.04845048 5.044,6.79658321 5.696,5.10282013 C5.696,5.10282013 6.704,4.77267987 8.997,6.36391492 C9.954,6.09119035 10.98,5.95482807 12,5.94970167 C13.02,5.95482807 14.047,6.09119035 15.006,6.36391492 C17.297,4.77267987 18.303,5.10282013 18.303,5.10282013 C18.956,6.79760849 18.545,8.04947576 18.421,8.35911041 C19.191,9.22034588 19.656,10.3184211 19.656,11.6615383 C19.656,16.3870553 16.849,17.4277148 14.177,17.7322231 C14.607,18.1136273 15,18.862082 15,20.0103959 L15,23.386644 C15,23.7137084 15.192,24.0981885 15.801,23.9772055 C20.566,22.348035 24,17.7373495 24,12.3033638 C24,5.50883113 18.627,0 12,0 Z" id="Path"></path>
        </g>
    </g>
</svg>

<svg xmlns="http://www.w3.org/2000/svg" width="24" height="24"  xmlns:v="https://vecta.io/nano"><path d="M12 0C5.374 0 0 5.509 0 12.303c0 5.436 3.438 10.048 8.207 11.675.599.114.793-.268.793-.592v-2.29c-3.338.744-4.033-1.452-4.033-1.452-.546-1.422-1.333-1.8-1.333-1.8-1.089-.764.083-.747.083-.747 1.205.086 1.839 1.268 1.839 1.268 1.07 1.88 2.807 1.337 3.492 1.022.107-.795.418-1.338.762-1.645-2.665-.313-5.467-1.368-5.467-6.081 0-1.344.469-2.441 1.236-3.302-.124-.311-.535-1.563.117-3.256 0 0 1.008-.33 3.301 1.261.957-.273 1.983-.409 3.003-.414 1.02.005 2.047.141 3.006.414 2.291-1.591 3.297-1.261 3.297-1.261.653 1.695.242 2.947.118 3.256.77.861 1.235 1.959 1.235 3.302 0 4.726-2.807 5.766-5.479 6.071.43.381.823 1.13.823 2.278v3.376c0 .327.192.712.801.591C20.566 22.348 24 17.737 24 12.303 24 5.509 18.627 0 12 0z" fill="#fff"/></svg>
